svg/kodi.svg

<svg xmlns="http://www.w3.org/2000/svg" viewBox="0 0 24 24"><path d="M12.03 1c-.21 0-.43.11-.62.31L8.88 3.84c-.22.22-.28.34-.5.54-.29.24-.42.53-.41.9C8 6.57 8 7.84 8 9.13v4.03c0 .1 0 .18.03.28.08.31.28.38.5.15 1.2-1.2 2.27-2.29 3.47-3.5 1.36-1.36 2.73-2.72 4.09-4.09.41-.4.41-.85 0-1.25-1.15-1.15-2.32-2.28-3.46-3.44-.2-.2-.39-.31-.6-.31m6.63 6.66c-.21 0-.41.09-.6.28-1.15 1.16-2.31 2.3-3.47 3.47-.39.39-.39.82 0 1.22 1.15 1.15 2.29 2.31 3.44 3.46.4.41.82.41 1.22 0 1.11-1.09 2.25-2.22 3.34-3.34.17-.17.34-.33.41-.56v-.31c-.07-.24-.24-.38-.41-.57-1.12-1.12-2.22-2.25-3.34-3.37-.19-.19-.39-.28-.59-.28m-13.88.43c-.13-.05-.2.05-.28.13-1.15 1.17-2.16 2.21-3.31 3.37-.26.27-.26.65 0 .91.62.63 1.25 1.25 1.87 1.88.54.54.94.95 1.5 1.5.16.15.3.12.38-.07.06-.1.06-.23.06-.34V8.63c0-.08 0-.18-.03-.25-.02-.13-.07-.24-.19-.29m7.31 6.16c-.2 0-.43.09-.62.28-1.15 1.16-2.29 2.34-3.44 3.5-.4.4-.4.82 0 1.22 1.11 1.12 2.23 2.22 3.35 3.34.16.17.33.34.56.41h.28c.22-.06.4-.21.56-.37 1.12-1.13 2.25-2.25 3.38-3.38.39-.4.34-.85-.03-1.25-1.16-1.16-2.29-2.31-3.44-3.47-.19-.19-.39-.28-.6-.28"/></svg>

<?xml version="1.0" encoding="UTF-8"?><!DOCTYPE svg PUBLIC "-//W3C//DTD SVG 1.1//EN" "http://www.w3.org/Graphics/SVG/1.1/DTD/svg11.dtd"><svg xmlns="http://www.w3.org/2000/svg" xmlns:xlink="http://www.w3.org/1999/xlink" version="1.1" id="mdi-kodi" width="24" height="24" viewBox="0 0 24 24"><path d="M12.03,1C11.82,1 11.6,1.11 11.41,1.31C10.56,2.16 9.72,3 8.88,3.84C8.66,4.06 8.6,4.18 8.38,4.38C8.09,4.62 7.96,4.91 7.97,5.28C8,6.57 8,7.84 8,9.13C8,10.46 8,11.82 8,13.16C8,13.26 8,13.34 8.03,13.44C8.11,13.75 8.31,13.82 8.53,13.59C9.73,12.39 10.8,11.3 12,10.09C13.36,8.73 14.73,7.37 16.09,6C16.5,5.6 16.5,5.15 16.09,4.75C14.94,3.6 13.77,2.47 12.63,1.31C12.43,1.11 12.24,1 12.03,1M18.66,7.66C18.45,7.66 18.25,7.75 18.06,7.94C16.91,9.1 15.75,10.24 14.59,11.41C14.2,11.8 14.2,12.23 14.59,12.63C15.74,13.78 16.88,14.94 18.03,16.09C18.43,16.5 18.85,16.5 19.25,16.09C20.36,15 21.5,13.87 22.59,12.75C22.76,12.58 22.93,12.42 23,12.19V11.88C22.93,11.64 22.76,11.5 22.59,11.31C21.47,10.19 20.37,9.06 19.25,7.94C19.06,7.75 18.86,7.66 18.66,7.66M4.78,8.09C4.65,8.04 4.58,8.14 4.5,8.22C3.35,9.39 2.34,10.43 1.19,11.59C0.93,11.86 0.93,12.24 1.19,12.5C1.81,13.13 2.44,13.75 3.06,14.38C3.6,14.92 4,15.33 4.56,15.88C4.72,16.03 4.86,16 4.94,15.81C5,15.71 5,15.58 5,15.47C5,14.29 5,13.37 5,12.19C5,11 5,9.81 5,8.63C5,8.55 5,8.45 4.97,8.38C4.95,8.25 4.9,8.14 4.78,8.09M12.09,14.25C11.89,14.25 11.66,14.34 11.47,14.53C10.32,15.69 9.18,16.87 8.03,18.03C7.63,18.43 7.63,18.85 8.03,19.25C9.14,20.37 10.26,21.47 11.38,22.59C11.54,22.76 11.71,22.93 11.94,23H12.22C12.44,22.94 12.62,22.79 12.78,22.63C13.9,21.5 15.03,20.38 16.16,19.25C16.55,18.85 16.5,18.4 16.13,18C14.97,16.84 13.84,15.69 12.69,14.53C12.5,14.34 12.3,14.25 12.09,14.25Z" /></svg>
